X:1
T: Rory O'More
P:Kerrs Version
R:Jig
Q:180
K:G
M:6/8
L:1/16
|:e2|d2G2G2 B2A2G2|d2G2G2 G4e2|d2c2B2 B2A2G2|F2A2A2 A4e2|
d2G2G2 B2A2G2|B2c2d2 e4d2|B2d2d2 d2e2f2|g2d2B2 G4:|
|:g2|g2f2e2 d2c2B2|c2B2A2 G4F2|E4F2 G4A2|B2e2d2 d4d2|
g2f2e2 d2c2B2|c2B2A2 G4F2|E4F2 G4A2|B2e2d2 d4:|
